X:185
T: ES WOLLTE EIN MAEDCHEN WOHL FRUEH AUFSTEHN
N: E0096F
O: Europa, Mitteleuropa, Deutschland, Lahngegend; Dillkreis
R: erzaehlendes Volks - Lied, Sage, Liebe, Leid, Tod
M: 3/4
L: 1/8
K: G
D2 | G2BAG2 | A3Bc
e | d3cB2 | A4
D2 | G2BAG2 | A3Bc
e | d3cB2 | A4z2
d2d2dc | B3cd2
edc2B2 | A3Bc
e | dcB2A2 | G4z2
d2d2dc | B3cd2
edc2B2 | A3Bc
e | dcB2A2 | G4

